Other-Icons/16x16-el_light/places/folder-download.svg

<?xml version="1.0" encoding="UTF-8" standalone="no"?>
<svg
   xmlns:dc="http://purl.org/dc/elements/1.1/"
   xmlns:cc="http://creativecommons.org/ns#"
   xmlns:rdf="http://www.w3.org/1999/02/22-rdf-syntax-ns#"
   xmlns:svg="http://www.w3.org/2000/svg"
   xmlns="http://www.w3.org/2000/svg"
   xmlns:xlink="http://www.w3.org/1999/xlink"
   xmlns:sodipodi="http://sodipodi.sourceforge.net/DTD/sodipodi-0.dtd"
   xmlns:inkscape="http://www.inkscape.org/namespaces/inkscape"
   viewBox="0 0 16 16"
   version="1.1"
   id="svg5"
   sodipodi:docname="folder-download.svg"
   inkscape:version="0.92.4 5da689c313, 2019-01-14">
  <metadata
     id="metadata9">
    <rdf:RDF>
      <cc:Work
         rdf:about="">
        <dc:format>image/svg+xml</dc:format>
        <dc:type
           rdf:resource="http://purl.org/dc/dcmitype/StillImage" />
      </cc:Work>
    </rdf:RDF>
  </metadata>
  <sodipodi:namedview
     pagecolor="#ffffff"
     bordercolor="#666666"
     borderopacity="1"
     objecttolerance="10"
     gridtolerance="10"
     guidetolerance="10"
     inkscape:pageopacity="0"
     inkscape:pageshadow="2"
     inkscape:window-width="599"
     inkscape:window-height="506"
     id="namedview7"
     showgrid="false"
     inkscape:zoom="14.75"
     inkscape:cx="8"
     inkscape:cy="8"
     inkscape:window-x="661"
     inkscape:window-y="345"
     inkscape:window-maximized="0"
     inkscape:current-layer="svg5" />
  <defs
     id="defs3051">
    <linearGradient
       inkscape:collect="always"
       id="linearGradient823">
      <stop
         style="stop-color:#6e6e6e;stop-opacity:1"
         offset="0"
         id="stop819" />
      <stop
         style="stop-color:#6e6e6e;stop-opacity:1"
         offset="1"
         id="stop821" />
    </linearGradient>
    <style
       type="text/css"
       id="current-color-scheme">
      .ColorScheme-Text {
        color:#4d4d4d;
      }
      </style>
    <linearGradient
       inkscape:collect="always"
       xlink:href="#linearGradient823"
       id="linearGradient825"
       x1="2"
       y1="8"
       x2="14"
       y2="8"
       gradientUnits="userSpaceOnUse" />
  </defs>
  <path
     style="fill:url(#linearGradient825);fill-opacity:1;stroke:none"
     d="M 6 2 L 6 3 L 6 6 L 7 6 L 7 3 L 9 3 L 9 6 L 10 6 L 10 3 L 10 2 L 6 2 z M 3.7070312 6 L 3 6.7070312 L 6.2929688 10 L 8 11.707031 L 9.7070312 10 L 13 6.7070312 L 12.292969 6 L 9 9.2929688 L 8 10.292969 L 7 9.2929688 L 3.7070312 6 z M 2 12 L 2 14 L 3 14 L 14 14 L 14 13 L 14 12 L 13 12 L 13 13 L 3 13 L 3 12 L 2 12 z "
     id="rect4099"
     class="ColorScheme-Text" />
</svg>

<svg xmlns="http://www.w3.org/2000/svg" xmlns:xlink="http://www.w3.org/1999/xlink" viewBox="0 0 16 16"><defs><linearGradient id="a"><stop offset="0" stop-color="#6e6e6e"/><stop offset="1" stop-color="#6e6e6e"/></linearGradient><linearGradient xlink:href="#a" id="b" x1="2" y1="8" x2="14" y2="8" gradientUnits="userSpaceOnUse"/></defs><path d="M6 2v4h1V3h2v3h1V2H6zM3.707 6L3 6.707 6.293 10 8 11.707 9.707 10 13 6.707 12.293 6 9 9.293l-1 1-1-1L3.707 6zM2 12v2h12v-2h-1v1H3v-1H2z" fill="url(#b)" color="#4d4d4d"/></svg>
